X: 0
T: Herr Jesus heeft een Hofken
Z: Traditional
Z: Copyright © 2004 by Douglas D. Anderson
Z: Released To The Public Domain
L: 1/4
M: 4/4
Q: 1/4=120
V: P1 name="Staff"
%%MIDI program 1 19
K: F
[V: P1]  F | F G A B | c c c A | G2 G2 | F2z C | F G A B c c c A | (G F) G2 | F2z | F G A B | G/ G/ G F F | G/ G/ G F F | A2 (F/ G/) A | B A G F | B A G F | G G F F | A2 (A/ B/ c) | B A G F | B A G F | G G (F2 | F2)z|]
w: King Je- sus hath a gar- den, full of di- vers flowers, Where I go cul- ling po- sies gay, all times_ and hours. There naught is heard but Pa- ra dise bird, Harp, dul- ci mer, lute, With cym-_ bal, trump and tym- bal, And the ten- der, sooth- ing flute. With cym- bal,__ trump and tym- bal, And the ten- der, sooth- ing flute._

